app/component-library/components/Icons/Icon/assets/password-check.svg

<svg width="24" height="24" viewBox="0 0 24 24" fill="none" xmlns="http://www.w3.org/2000/svg">
<path d="M18.2808 4H16.0308V2.75C16.0308 2.34 15.6908 2 15.2808 2C14.8708 2 14.5308 2.34 14.5308 2.75V21.25C14.5308 21.66 14.8708 22 15.2808 22C15.6908 22 16.0308 21.66 16.0308 21.25V20H18.2808C20.4908 20 22.2808 18.21 22.2808 16V8C22.2808 5.79 20.4908 4 18.2808 4Z" fill="currentColor"/>
<path d="M6.78076 4C4.57076 4 2.78076 5.79 2.78076 8V16C2.78076 18.21 4.57076 20 6.78076 20H11.7808C12.3308 20 12.7808 19.55 12.7808 19V5C12.7808 4.45 12.3308 4 11.7808 4H6.78076ZM6.95076 12.38C6.90076 12.5 6.83076 12.61 6.74076 12.71C6.64076 12.8 6.53076 12.87 6.41076 12.92C6.29076 12.97 6.16076 13 6.03076 13C5.90076 13 5.77076 12.97 5.65076 12.92C5.53076 12.87 5.42076 12.8 5.32076 12.71C5.23076 12.61 5.16076 12.5 5.10076 12.38C5.05076 12.26 5.03076 12.13 5.03076 12C5.03076 11.74 5.14076 11.48 5.32076 11.29C5.37076 11.25 5.42076 11.21 5.47076 11.17C5.53076 11.13 5.59076 11.1 5.65076 11.08C5.71076 11.05 5.77076 11.03 5.83076 11.02C6.17076 10.95 6.51076 11.06 6.74076 11.29C6.92076 11.48 7.03076 11.74 7.03076 12C7.03076 12.13 7.00076 12.26 6.95076 12.38ZM10.4508 12.38C10.4008 12.5 10.3308 12.61 10.2408 12.71C10.1408 12.8 10.0308 12.87 9.91076 12.92C9.79076 12.97 9.66076 13 9.53076 13C9.40076 13 9.27076 12.97 9.15076 12.92C9.03076 12.87 8.92076 12.8 8.82076 12.71C8.63076 12.52 8.53076 12.27 8.53076 12C8.53076 11.87 8.56076 11.74 8.61076 11.62C8.66076 11.49 8.73076 11.39 8.82076 11.29C9.19076 10.92 9.86076 10.92 10.2408 11.29C10.4208 11.48 10.5308 11.74 10.5308 12C10.5308 12.13 10.5008 12.26 10.4508 12.38Z" fill="currentColor"/>
</svg>

<svg xmlns="http://www.w3.org/2000/svg" width="24" height="24" viewBox="0 0 24 24" fill="none"><path d="M18.28 4h-2.25V2.75c0-.41-.34-.75-.75-.75s-.75.34-.75.75v18.5c0 .41.34.75.75.75s.75-.34.75-.75V20h2.25c2.21 0 4-1.79 4-4V8c0-2.21-1.79-4-4-4zM6.78 4c-2.21 0-4 1.79-4 4v8c0 2.21 1.79 4 4 4h5c.55 0 1-.45 1-1V5c0-.55-.45-1-1-1h-5zm.17 8.38c-.05.12-.12.23-.21.33-.1.09-.21.16-.33.21-.12.05-.25.08-.38.08s-.26-.03-.38-.08-.23-.12-.33-.21c-.09-.1-.16-.21-.22-.33a.986.986 0 0 1-.07-.38c0-.26.11-.52.29-.71l.15-.12c.06-.04.12-.07.18-.09.06-.03.12-.05.18-.06.34-.07.68.04.91.27.18.19.29.45.29.71 0 .13-.03.26-.08.38zm3.5 0c-.05.12-.12.23-.21.33-.1.09-.21.16-.33.21-.12.05-.25.08-.38.08s-.26-.03-.38-.08-.23-.12-.33-.21a.99.99 0 0 1-.21-1.09c.05-.13.12-.23.21-.33.37-.37 1.04-.37 1.42 0 .18.19.29.45.29.71 0 .13-.03.26-.08.38z" fill="currentColor"/></svg>
